X:48
T:Steyrer Tanz in G, nr. 4
C:traditionell
R:Steirer
A:Hallstatt, Salzkammergut
B:Corpus Musicae Popularis Austriacae (COMPA), 5.Band: J.M.Schmalnauer " Tanz Musik", Verlag Boehlau, Wien 1996
S:manuscript des Johann Michael Schmalnauer um 1820
N:im der quelle in G
Z:abc transcription Simon Wascher
F:http://simonwascher.info/TradArchiv/
M:3/4
L:1/8
K:G
V:1
%violino 1mo
(G2 Bd g2) | (F2 Ac e2) | cAFDFA | G2 B,DGB |\
(G2 Bd g2) | (F2 Ac e2) | cAFDFA | "in D" G4 :|
V:2
%violino 2do
(B,2 DG B2) | (D2 FA c2) | (AFDCA,C) | B,2 G,B,DG |\
(B,2 DG B2) | (D2 FA c2) | (AFDCA,C) | B,4 :|
